X: 20
M:C|
L:1/8
K:A
((3uEFG)|A>GA>B A>c"4"e>c|B>"1"^AB>c B>Fd>c|\
{B}A>GA>B A>c"4"e>c|{c}B>"1"^AB>c B>Fd>c|\
e>ag>f e>dc>B|A2c2A2:|
|:((3ucBA)|B>"4"e^d>"4"e B>gf>g|e>Be>g b2 (ag)|\
f>ga>f ^d>Bc>d|(3"0".e.g.f (3.e.^d.c B2(G"4"A)|
f>ga>f ^d>Bc>d|1 e2g2e2:|2 {f}"0"e>^d"0"e>f e>=dc>B|]


